; generated by PrusaSlicer 2.3.2+win32 on 2021-07-13 at 19:14:31 UTC

; 

; external perimeters extrusion width = 0.45mm
; perimeters extrusion width = 0.45mm
; infill extrusion width = 0.45mm
; solid infill extrusion width = 0.45mm
; top infill extrusion width = 0.45mm
; support material extrusion width = 0.38mm
; first layer extrusion width = 0.42mm

M201 X500 Y500 Z100 E5000 ; sets maximum accelerations, mm/sec^2
M203 X500 Y500 Z10 E60 ; sets maximum feedrates, mm/sec
M204 P500 R1000 T500 ; sets acceleration (P, T) and retract acceleration (R), mm/sec^2
M205 X8.00 Y8.00 Z0.40 E5.00 ; sets the jerk limits, mm/sec
M205 S0 T0 ; sets the minimum extruding and travel feed rate, mm/sec
M107
;TYPE:Custom
G90 ; use absolute coordinates
M83 ; extruder relative mode
M140 S60 ; set final bed temp
M104 S150 ; set temporary nozzle temp to prevent oozing during homing
G4 S10 ; allow partial nozzle warmup
G28 ; home all axis
G1 Z50 F240
G1 X2 Y10 F3000
M104 S210 ; set final nozzle temp
M190 S60 ; wait for bed temp to stabilize
M109 S210 ; wait for nozzle temp to stabilize
G1 Z0.28 F240
G92 E0
G1 Y140 E10 F1500 ; prime the nozzle
G1 X2.3 F5000
G92 E0
G1 Y10 E10 F1200 ; prime the nozzle
G92 E0
G21 ; set units to millimeters
G90 ; use absolute coordinates
M83 ; use relative distances for extrusion
; Filament gcode
;LAYER_CHANGE
;Z:0.2
;HEIGHT:0.2
;BEFORE_LAYER_CHANGE
G92 E0
;0.2


G1 E-5.00000 F3600.000
G1 Z0.200 F9000.000
;AFTER_LAYER_CHANGE
;0.2
G1 X93.136 Y87.675
G1 E5.00000 F2400.000
M204 S500
;TYPE:Skirt
;WIDTH:0.42
G1 F1200.000
G1 X95.620 Y85.204 E0.10985
G1 X98.776 Y82.688 E0.12655
G1 X101.744 Y80.815 E0.11005
G1 X105.184 Y79.141 E0.11994
G1 X108.492 Y77.947 E0.11028
G1 X112.059 Y77.076 E0.11512
G1 X115.694 Y76.595 E0.11497
G1 X119.274 Y76.508 E0.11227
G1 X123.027 Y76.821 E0.11810
G1 X126.471 Y77.491 E0.10999
G1 X130.318 Y78.689 E0.12632
G1 X133.533 Y80.093 E0.10999
G1 X136.725 Y81.915 E0.11526
G1 X139.694 Y84.067 E0.11497
G1 X142.424 Y86.536 E0.11540
G1 X144.865 Y89.279 E0.11512
G1 X146.995 Y92.269 E0.11512
G1 X148.792 Y95.476 E0.11526
G1 X150.170 Y98.702 E0.10999
G1 X151.294 Y102.363 E0.12008
G1 X151.948 Y105.814 E0.11014
G1 X152.260 Y109.836 E0.12647
G1 X152.145 Y113.342 E0.10999
G1 X151.633 Y116.982 E0.11526
G1 X150.734 Y120.537 E0.11497
G1 X149.453 Y123.982 E0.11526
G1 X147.806 Y127.269 E0.11526
G1 X145.817 Y130.355 E0.11512
G1 X143.503 Y133.211 E0.11526
G1 X141.016 Y135.685 E0.10999
G1 X137.863 Y138.198 E0.12641
G1 X134.895 Y140.071 E0.11005
G1 X131.451 Y141.746 E0.12008
G1 X128.147 Y142.939 E0.11014
G1 X124.576 Y143.811 E0.11526
G1 X120.940 Y144.291 E0.11497
G1 X117.270 Y144.376 E0.11512
G1 X113.603 Y144.063 E0.11540
G1 X110.004 Y143.358 E0.11497
G1 X106.490 Y142.265 E0.11540
G1 X103.279 Y140.874 E0.10971
G1 X99.779 Y138.878 E0.12632
G1 X96.938 Y136.813 E0.11014
G1 X94.212 Y134.347 E0.11526
G1 X91.774 Y131.607 E0.11497
G1 X89.644 Y128.617 E0.11512
G1 X87.847 Y125.410 E0.11526
G1 X86.469 Y122.184 E0.10999
G1 X85.346 Y118.523 E0.12008
G1 X84.691 Y115.072 E0.11014
G1 X84.379 Y111.050 E0.12647
G1 X84.494 Y107.544 E0.10999
G1 X85.006 Y103.904 E0.11526
G1 X85.905 Y100.349 E0.11497
G1 X87.187 Y96.904 E0.11526
G1 X88.833 Y93.617 E0.11526
G1 X90.822 Y90.531 E0.11512
G1 X93.099 Y87.722 E0.11338
G1 E-3.50000 F3600.000
;WIPE_START
G1 F7200.000
G1 X95.221 Y85.602 E-1.42500
;WIPE_END
G1 E-0.07500 F3600.000
G1 X139.436 Y115.917 F9000.000
G1 E5.00000 F2400.000
;TYPE:Support material
G1 F1200.000
G1 X139.436 Y105.139 E0.33793
G1 X138.682 Y105.139 E0.02365
G1 X138.682 Y115.747 E0.33261
G1 X137.928 Y115.747 E0.02365
G1 X137.928 Y105.139 E0.33261
G1 X137.595 Y105.139 E0.01044
G1 X137.595 Y98.153 E0.21902
G1 X137.174 Y98.153 E0.01320
G1 X137.174 Y122.733 E0.77066
G1 X136.419 Y122.733 E0.02365
G1 X136.419 Y98.153 E0.77066
G1 X135.665 Y98.153 E0.02365
G1 X135.665 Y122.733 E0.77066
G1 X135.266 Y122.733 E0.01251
G1 X135.266 Y125.061 E0.07301
G1 X134.911 Y125.061 E0.01113
G1 X134.911 Y95.825 E0.91668
G1 X134.157 Y95.825 E0.02365
G1 X134.157 Y125.061 E0.91668
G1 X133.403 Y125.061 E0.02365
G1 X133.403 Y95.825 E0.91668
G1 X132.938 Y95.825 E0.01458
G1 X132.938 Y93.496 E0.07301
G1 X132.649 Y93.496 E0.00906
G1 X132.649 Y127.390 E1.06270
G1 X131.894 Y127.390 E0.02365
G1 X131.894 Y93.496 E1.06270
G1 X131.140 Y93.496 E0.02365
G1 X131.140 Y127.390 E1.06270
G1 X130.609 Y127.390 E0.01665
G1 X130.609 Y129.718 E0.07301
G1 X130.386 Y129.718 E0.00699
G1 X130.386 Y91.168 E1.20871
G1 X129.632 Y91.168 E0.02365
G1 X129.632 Y129.718 E1.20871
G1 X128.878 Y129.718 E0.02365
G1 X128.878 Y91.168 E1.20871
G1 X128.124 Y91.168 E0.02365
G1 X128.124 Y129.718 E1.20871
G1 X127.369 Y129.718 E0.02365
G1 X127.369 Y91.168 E1.20871
G1 X126.615 Y91.168 E0.02365
G1 X126.615 Y129.718 E1.20871
G1 X125.861 Y129.718 E0.02365
G1 X125.861 Y91.168 E1.20871
G1 X125.107 Y91.168 E0.02365
G1 X125.107 Y129.718 E1.20871
G1 X124.353 Y129.718 E0.02365
G1 X124.353 Y91.168 E1.20871
G1 X123.624 Y91.168 E0.02286
G1 X123.624 Y88.839 E0.07301
G1 X123.599 Y88.839 E0.00078
G1 X123.599 Y132.047 E1.35473
G1 X122.845 Y132.047 E0.02365
G1 X122.845 Y88.839 E1.35473
G1 X122.090 Y88.839 E0.02365
G1 X122.090 Y132.047 E1.35473
G1 X121.336 Y132.047 E0.02365
G1 X121.336 Y88.839 E1.35473
G1 X120.582 Y88.839 E0.02365
G1 X120.582 Y132.047 E1.35473
G1 X119.828 Y132.047 E0.02365
G1 X119.828 Y88.839 E1.35473
G1 X119.074 Y88.839 E0.02365
G1 X119.074 Y132.047 E1.35473
G1 X118.320 Y132.047 E0.02365
G1 X118.320 Y88.839 E1.35473
G1 X117.565 Y88.839 E0.02365
G1 X117.565 Y132.047 E1.35473
G1 X116.811 Y132.047 E0.02365
G1 X116.811 Y88.839 E1.35473
G1 X116.057 Y88.839 E0.02365
G1 X116.057 Y132.047 E1.35473
G1 X115.303 Y132.047 E0.02365
G1 X115.303 Y88.839 E1.35473
G1 X114.549 Y88.839 E0.02365
G1 X114.549 Y132.047 E1.35473
G1 X113.795 Y132.047 E0.02365
G1 X113.795 Y88.839 E1.35473
G1 X113.040 Y88.839 E0.02365
G1 X113.040 Y132.047 E1.35473
G1 X113.015 Y132.047 E0.00078
G1 X113.015 Y129.718 E0.07301
G1 X112.286 Y129.718 E0.02286
G1 X112.286 Y91.168 E1.20871
G1 X111.532 Y91.168 E0.02365
G1 X111.532 Y129.718 E1.20871
G1 X110.778 Y129.718 E0.02365
G1 X110.778 Y91.168 E1.20871
G1 X110.024 Y91.168 E0.02365
G1 X110.024 Y129.718 E1.20871
G1 X109.270 Y129.718 E0.02365
G1 X109.270 Y91.168 E1.20871
G1 X108.515 Y91.168 E0.02365
G1 X108.515 Y129.718 E1.20871
G1 X107.761 Y129.718 E0.02365
G1 X107.761 Y91.168 E1.20871
G1 X107.007 Y91.168 E0.02365
G1 X107.007 Y129.718 E1.20871
G1 X106.253 Y129.718 E0.02365
G1 X106.253 Y91.168 E1.20871
G1 X106.030 Y91.168 E0.00699
G1 X106.030 Y93.496 E0.07301
G1 X105.499 Y93.496 E0.01665
G1 X105.499 Y127.390 E1.06270
G1 X104.745 Y127.390 E0.02365
G1 X104.745 Y93.496 E1.06270
G1 X103.991 Y93.496 E0.02365
G1 X103.991 Y127.390 E1.06270
G1 X103.701 Y127.390 E0.00906
G1 X103.701 Y125.061 E0.07301
G1 X103.236 Y125.061 E0.01458
G1 X103.236 Y95.825 E0.91668
G1 X102.482 Y95.825 E0.02365
G1 X102.482 Y125.061 E0.91668
G1 X101.728 Y125.061 E0.02365
G1 X101.728 Y95.825 E0.91668
G1 X101.373 Y95.825 E0.01113
G1 X101.373 Y98.153 E0.07301
G1 X100.974 Y98.153 E0.01251
G1 X100.974 Y122.733 E0.77066
G1 X100.220 Y122.733 E0.02365
G1 X100.220 Y98.153 E0.77066
G1 X99.466 Y98.153 E0.02365
G1 X99.466 Y122.733 E0.77066
G1 X99.044 Y122.733 E0.01320
G1 X99.044 Y115.747 E0.21902
G1 X98.711 Y115.747 E0.01044
G1 X98.711 Y105.139 E0.33261
G1 X97.957 Y105.139 E0.02365
G1 X97.957 Y115.747 E0.33261
G1 X97.203 Y115.747 E0.02365
G1 X97.203 Y104.969 E0.33793
G1 E-3.50000 F3600.000
;WIPE_START
G1 F7200.000
G1 X97.203 Y107.969 E-1.42500
;WIPE_END
G1 E-0.07500 F3600.000
G1 X90.969 Y101.925 F9000.000
G1 E5.00000 F2400.000
;TYPE:Perimeter
G1 F1200.000
G1 X92.050 Y99.018 E0.09725
G1 X93.439 Y96.244 E0.09725
G1 X95.120 Y93.637 E0.09725
G1 X97.073 Y91.228 E0.09725
G1 X99.275 Y89.043 E0.09725
G1 X101.701 Y87.110 E0.09725
G1 X104.321 Y85.450 E0.09725
G1 X107.105 Y84.083 E0.09725
G1 X110.021 Y83.025 E0.09725
G1 X113.034 Y82.288 E0.09725
G1 X116.109 Y81.882 E0.09725
G1 X119.210 Y81.810 E0.09725
G1 X122.301 Y82.074 E0.09725
G1 X125.345 Y82.671 E0.09725
G1 X128.306 Y83.593 E0.09725
G1 X131.150 Y84.831 E0.09725
G1 X133.844 Y86.368 E0.09725
G1 X136.356 Y88.188 E0.09725
G1 X138.657 Y90.268 E0.09725
G1 X140.719 Y92.585 E0.09725
G1 X142.518 Y95.112 E0.09725
G1 X144.034 Y97.818 E0.09725
G1 X145.248 Y100.672 E0.09725
G1 X146.147 Y103.641 E0.09725
G1 X146.719 Y106.690 E0.09725
G1 X146.959 Y109.782 E0.09725
G1 X146.862 Y112.882 E0.09725
G1 X146.431 Y115.954 E0.09725
G1 X145.670 Y118.961 E0.09725
G1 X144.589 Y121.868 E0.09725
G1 X143.200 Y124.642 E0.09725
G1 X141.519 Y127.248 E0.09725
G1 X139.566 Y129.658 E0.09725
G1 X137.364 Y131.843 E0.09725
G1 X134.938 Y133.776 E0.09725
G1 X132.318 Y135.436 E0.09725
G1 X129.534 Y136.803 E0.09725
G1 X126.618 Y137.861 E0.09725
G1 X123.605 Y138.598 E0.09725
G1 X120.530 Y139.004 E0.09725
G1 X117.429 Y139.076 E0.09725
G1 X114.338 Y138.812 E0.09725
G1 X111.295 Y138.215 E0.09725
G1 X108.333 Y137.293 E0.09725
G1 X105.489 Y136.055 E0.09725
G1 X102.795 Y134.518 E0.09725
G1 X100.283 Y132.698 E0.09725
G1 X97.982 Y130.618 E0.09725
G1 X95.920 Y128.301 E0.09725
G1 X94.121 Y125.774 E0.09725
G1 X92.605 Y123.068 E0.09725
G1 X91.391 Y120.214 E0.09725
G1 X90.492 Y117.245 E0.09725
G1 X89.920 Y114.196 E0.09725
G1 X89.681 Y111.104 E0.09725
G1 X89.777 Y108.004 E0.09725
G1 X90.208 Y104.932 E0.09725
G1 X90.954 Y101.983 E0.09537
G1 X91.320 Y102.075 F9000.000
;TYPE:External perimeter
G1 F1200.000
G1 X92.396 Y99.168 E0.09721
G1 X93.767 Y96.431 E0.09597
G1 X95.426 Y93.859 E0.09597
G1 X97.353 Y91.481 E0.09597
G1 X99.526 Y89.325 E0.09597
G1 X101.920 Y87.417 E0.09597
G1 X104.506 Y85.779 E0.09597
G1 X107.253 Y84.430 E0.09597
G1 X110.130 Y83.386 E0.09597
G1 X113.104 Y82.659 E0.09597
G1 X116.138 Y82.258 E0.09597
G1 X119.198 Y82.188 E0.09597
G1 X122.248 Y82.448 E0.09597
G1 X125.252 Y83.037 E0.09597
G1 X128.174 Y83.947 E0.09597
G1 X130.981 Y85.168 E0.09597
G1 X133.640 Y86.685 E0.09597
G1 X136.119 Y88.481 E0.09597
G1 X138.389 Y90.534 E0.09597
G1 X140.424 Y92.821 E0.09597
G1 X142.199 Y95.314 E0.09597
G1 X143.695 Y97.984 E0.09597
G1 X144.893 Y100.801 E0.09597
G1 X145.780 Y103.731 E0.09597
G1 X146.345 Y106.739 E0.09597
G1 X146.581 Y109.791 E0.09597
G1 X146.486 Y112.850 E0.09597
G1 X146.060 Y115.881 E0.09597
G1 X145.310 Y118.849 E0.09597
G1 X144.243 Y121.718 E0.09597
G1 X142.872 Y124.455 E0.09597
G1 X141.213 Y127.027 E0.09597
G1 X139.286 Y129.405 E0.09597
G1 X137.113 Y131.561 E0.09597
G1 X134.719 Y133.469 E0.09597
G1 X132.134 Y135.107 E0.09597
G1 X129.386 Y136.456 E0.09597
G1 X126.509 Y137.500 E0.09597
G1 X123.535 Y138.227 E0.09597
G1 X120.501 Y138.628 E0.09597
G1 X117.441 Y138.698 E0.09597
G1 X114.391 Y138.438 E0.09597
G1 X111.387 Y137.849 E0.09597
G1 X108.465 Y136.939 E0.09597
G1 X105.658 Y135.718 E0.09597
G1 X102.999 Y134.201 E0.09597
G1 X100.520 Y132.405 E0.09597
G1 X98.250 Y130.352 E0.09597
G1 X96.215 Y128.065 E0.09597
G1 X94.440 Y125.572 E0.09597
G1 X92.944 Y122.901 E0.09597
G1 X91.746 Y120.085 E0.09597
G1 X90.859 Y117.155 E0.09597
G1 X90.294 Y114.147 E0.09597
G1 X90.058 Y111.095 E0.09597
G1 X90.153 Y108.036 E0.09597
G1 X90.579 Y105.004 E0.09597
G1 X91.305 Y102.134 E0.09285
G1 X91.048 Y101.782 F9000.000
G1 X89.741 Y101.738
;TYPE:Perimeter
G1 F1200.000
G1 X89.787 Y101.557 E0.00586
G1 X90.915 Y98.524 E0.10146
G1 X92.364 Y95.631 E0.10146
G1 X94.118 Y92.911 E0.10146
G1 X96.155 Y90.397 E0.10146
G1 X98.452 Y88.119 E0.10146
G1 X100.983 Y86.101 E0.10146
G1 X103.716 Y84.370 E0.10146
G1 X106.621 Y82.944 E0.10146
G1 X109.662 Y81.840 E0.10146
G1 X112.806 Y81.072 E0.10146
G1 X116.014 Y80.648 E0.10146
G1 X119.249 Y80.573 E0.10146
G1 X122.473 Y80.849 E0.10146
G1 X125.648 Y81.471 E0.10146
G1 X128.738 Y82.433 E0.10146
G1 X131.705 Y83.724 E0.10146
G1 X134.515 Y85.328 E0.10146
G1 X137.136 Y87.226 E0.10146
G1 X139.536 Y89.396 E0.10146
G1 X141.687 Y91.814 E0.10146
G1 X143.564 Y94.449 E0.10146
G1 X145.002 Y97.016 E0.09225
G1 X145.145 Y97.272 E0.00921
G1 X146.412 Y100.250 E0.10146
G1 X147.349 Y103.347 E0.10146
G1 X147.946 Y106.527 E0.10146
G1 X148.196 Y109.754 E0.10146
G1 X148.095 Y112.988 E0.10146
G1 X147.646 Y116.192 E0.10146
G1 X146.852 Y119.329 E0.10146
G1 X145.724 Y122.362 E0.10146
G1 X144.275 Y125.255 E0.10146
G1 X142.521 Y127.975 E0.10146
G1 X140.484 Y130.489 E0.10146
G1 X138.187 Y132.767 E0.10146
G1 X135.656 Y134.785 E0.10146
G1 X132.923 Y136.516 E0.10146
G1 X130.018 Y137.942 E0.10146
G1 X126.977 Y139.046 E0.10146
G1 X123.833 Y139.814 E0.10146
G1 X120.625 Y140.238 E0.10146
G1 X117.390 Y140.313 E0.10146
G1 X114.166 Y140.037 E0.10146
G1 X110.991 Y139.415 E0.10146
G1 X107.902 Y138.453 E0.10146
G1 X104.934 Y137.162 E0.10146
G1 X102.124 Y135.558 E0.10146
G1 X99.503 Y133.660 E0.10146
G1 X97.103 Y131.490 E0.10146
G1 X94.952 Y129.072 E0.10146
G1 X93.075 Y126.437 E0.10146
G1 X91.494 Y123.613 E0.10146
G1 X90.227 Y120.636 E0.10146
G1 X89.290 Y117.539 E0.10146
G1 X88.693 Y114.359 E0.10146
G1 X88.443 Y111.132 E0.10146
G1 X88.544 Y107.898 E0.10146
G1 X88.993 Y104.694 E0.10146
G1 X89.726 Y101.796 E0.09371
G1 X89.426 Y101.444 F9000.000
;TYPE:External perimeter
G1 F1200.000
G1 X90.569 Y98.373 E0.10274
G1 X92.036 Y95.444 E0.10274
G1 X93.812 Y92.690 E0.10274
G1 X95.677 Y90.388 E0.09289
G1 X95.875 Y90.144 E0.00985
G1 X98.201 Y87.836 E0.10274
G1 X100.764 Y85.794 E0.10274
G1 X103.532 Y84.040 E0.10274
G1 X106.473 Y82.596 E0.10274
G1 X109.553 Y81.478 E0.10274
G1 X112.736 Y80.700 E0.10274
G1 X115.985 Y80.271 E0.10274
G1 X119.260 Y80.196 E0.10274
G1 X122.525 Y80.475 E0.10274
G1 X125.741 Y81.105 E0.10274
G1 X128.869 Y82.079 E0.10274
G1 X131.874 Y83.386 E0.10274
G1 X134.720 Y85.010 E0.10274
G1 X137.374 Y86.933 E0.10274
G1 X139.804 Y89.130 E0.10274
G1 X141.982 Y91.578 E0.10274
G1 X143.883 Y94.247 E0.10274
G1 X145.331 Y96.832 E0.09289
G1 X145.484 Y97.106 E0.00985
G1 X146.767 Y100.121 E0.10274
G1 X147.716 Y103.257 E0.10274
G1 X148.321 Y106.478 E0.10274
G1 X148.574 Y109.745 E0.10274
G1 X148.472 Y113.020 E0.10274
G1 X148.016 Y116.265 E0.10274
G1 X147.213 Y119.442 E0.10274
G1 X146.071 Y122.513 E0.10274
G1 X144.603 Y125.442 E0.10274
G1 X142.827 Y128.196 E0.10274
G1 X140.962 Y130.498 E0.09289
G1 X140.764 Y130.742 E0.00985
G1 X138.438 Y133.050 E0.10274
G1 X135.876 Y135.092 E0.10274
G1 X133.108 Y136.846 E0.10274
G1 X130.166 Y138.290 E0.10274
G1 X127.086 Y139.408 E0.10274
G1 X123.903 Y140.186 E0.10274
G1 X120.655 Y140.615 E0.10274
G1 X117.379 Y140.690 E0.10274
G1 X114.114 Y140.411 E0.10274
G1 X110.898 Y139.781 E0.10274
G1 X107.770 Y138.807 E0.10274
G1 X104.765 Y137.500 E0.10274
G1 X101.919 Y135.876 E0.10274
G1 X99.266 Y133.953 E0.10274
G1 X96.835 Y131.755 E0.10274
G1 X94.657 Y129.308 E0.10274
G1 X92.756 Y126.639 E0.10274
G1 X91.155 Y123.780 E0.10274
G1 X89.872 Y120.765 E0.10274
G1 X88.923 Y117.628 E0.10274
G1 X88.318 Y114.408 E0.10274
G1 X88.066 Y111.141 E0.10274
G1 X88.167 Y107.866 E0.10274
G1 X88.623 Y104.621 E0.10274
G1 X89.412 Y101.503 E0.10086
G1 X89.817 Y101.356 F9000.000
G1 E-3.50000 F3600.000
;WIPE_START
G1 F7200.000
G1 X90.452 Y98.689 E-1.42500
;WIPE_END
G1 E-0.07500 F3600.000
G1 X142.856 Y93.650 F9000.000
G1 E5.00000 F2400.000
;TYPE:Solid infill
;WIDTH:0.420006
G1 F1200.000
G1 X135.848 Y86.642 E0.31075
G1 X134.362 Y85.566 E0.05755
G1 X134.074 Y85.401 E0.01040
G1 X143.832 Y95.160 E0.43272
G1 E-3.50000 F3600.000
;WIPE_START
G1 F7200.000
G1 X141.711 Y93.039 E-1.42500
;WIPE_END
G1 E-0.07500 F3600.000
G1 X141.188 Y93.048 F9000.000
G1 E5.00000 F2400.000
G1 F1200.000
G1 X144.069 Y95.930 E0.12778
G1 X144.748 Y97.142 E0.04357
G1 X143.001 Y95.395 E0.07746
G1 X143.680 Y96.608 E0.04357
G1 X145.203 Y98.130 E0.06751
G1 X145.598 Y99.058 E0.03163
G1 X144.330 Y97.790 E0.05623
G1 X144.724 Y98.718 E0.03163
G1 X145.993 Y99.986 E0.05623
G1 X146.146 Y100.347 E0.01227
G1 X146.287 Y100.815 E0.01533
G1 X145.119 Y99.646 E0.05180
G1 X145.514 Y100.575 E0.03163
G1 X146.519 Y101.579 E0.04455
G1 X146.750 Y102.344 E0.02505
G1 X145.746 Y101.340 E0.04454
G1 X145.977 Y102.104 E0.02505
G1 X146.982 Y103.109 E0.04454
G1 X147.074 Y103.414 E0.01001
G1 X147.148 Y103.809 E0.01258
G1 X146.209 Y102.869 E0.04166
G1 X146.432 Y103.625 E0.02472
G1 X147.272 Y104.465 E0.03724
G1 X147.395 Y105.122 E0.02094
G1 X146.555 Y104.282 E0.03724
